<?xml version="1.0" encoding="UTF-8"?>
<map version="1.10" tiledversion="1.12.2" orientation="orthogonal" renderorder="right-down" width="15" height="10" tilewidth="16" tileheight="16" infinite="0" nextlayerid="2" nextobjectid="1">
 <tileset firstgid="1" source="../../../../yellow floor.tsx"/>
 <layer id="1" name="Tile Layer 1" width="15" height="10">
  <data encoding="csv">
221,221,221,221,221,221,221,221,221,221,221,221,221,221,221,
221,221,221,221,221,221,221,221,221,221,221,221,221,221,221,
221,221,221,221,221,221,221,221,221,221,221,221,221,221,221,
221,221,221,221,221,221,221,221,221,221,221,221,221,221,221,
221,221,221,221,221,221,221,221,221,221,221,221,221,221,221,
221,221,221,221,221,221,221,221,221,221,221,221,221,221,221,
221,221,221,221,221,221,221,221,221,221,221,221,221,221,221,
221,221,221,221,221,221,221,221,221,221,221,221,221,221,221,
221,221,221,221,221,221,221,221,221,221,221,221,221,221,221,
221,221,221,221,221,221,221,221,221,221,221,221,221,221,221
</data>
 </layer>
</map>
