<?xml version="1.0" encoding="UTF-8"?>
<map version="1.10" tiledversion="1.12.2" orientation="orthogonal" renderorder="right-down" width="15" height="10" tilewidth="16" tileheight="16" infinite="0" nextlayerid="2" nextobjectid="1">
 <tileset firstgid="1" name="neo_zero_exterior_03_purple_yellow" tilewidth="16" tileheight="16" tilecount="280" columns="20">
  <image source="neo_zero_exterior_03_purple_yellow.png" width="320" height="224"/>
 </tileset>
 <layer id="1" name="Tile Layer 1" width="15" height="10">
  <data encoding="csv">
201,201,201,201,201,201,201,201,201,201,201,201,201,201,201,
201,201,201,201,201,201,201,201,201,201,201,201,201,201,201,
201,201,201,201,201,201,201,201,201,201,201,201,201,201,201,
201,201,201,201,201,201,201,201,201,201,201,201,201,201,201,
201,201,201,201,201,201,201,201,201,201,201,201,201,201,201,
201,201,201,201,201,201,201,201,201,201,201,201,201,201,201,
201,201,201,201,201,201,201,201,201,201,201,201,201,201,201,
201,201,201,201,201,201,201,201,201,201,201,201,201,201,201,
201,201,201,201,201,201,201,201,201,201,201,201,201,201,201,
201,201,201,201,201,201,201,201,201,201,201,201,201,201,201
</data>
 </layer>
</map>
